svg/emoji_u1f47d.svg

<svg width="128" height="128" viewBox="0 0 128 128" fill="none" xmlns="http://www.w3.org/2000/svg">
<path d="M64.2002 123.501C58.1113 123.501 43.5401 113.029 30.7608 99.0902C31.8032 100.245 32.8645 101.376 33.94 102.48C19.53 88.4105 5.46997 68.9005 5.46997 53.3005C5.46997 25.6005 33.67 2.00049 61.47 2.00049C67.4397 2.00049 73.4282 3.07905 79.1518 5.05036C101.221 11.9415 120 33.0338 120 55.8007C120 83.6007 77.4002 123.501 64.2002 123.501Z" fill="#ADBCC3" style="fill:#ADBCC3;fill:color(display-p3 0.6784 0.7373 0.7647);fill-opacity:1;"/>
<path d="M64 102.35C54.63 102.35 47.94 96.8301 45.93 93.7701C45.17 92.7901 45.01 91.4602 45.52 90.3302C45.91 89.5902 46.69 89.1502 47.52 89.1802C47.82 89.1802 48.12 89.2302 48.4 89.3302C53.1 90.8002 57.23 93.0002 64 93.0002C70.77 93.0002 74.92 90.8402 79.63 89.3702C79.91 89.2702 80.21 89.2202 80.51 89.2202C81.34 89.1902 82.12 89.6302 82.51 90.3702C83.02 91.5002 82.86 92.8302 82.1 93.8102C80.06 96.8302 73.37 102.35 64 102.35Z" fill="#1A232C" style="fill:#1A232C;fill:color(display-p3 0.1018 0.1377 0.1708);fill-opacity:1;"/>
<path d="M54.0499 81.5602C51.0499 85.4402 36.3399 85.4502 25.1999 75.2002C15.1099 65.9202 15.7399 49.5602 19.0699 46.2602C22.3999 42.9602 38.2599 42.8802 47.9199 52.6202C57.5799 62.3602 57.7199 77.9202 54.0499 81.5602Z" fill="#1A232C" style="fill:#1A232C;fill:color(display-p3 0.1018 0.1377 0.1708);fill-opacity:1;"/>
<path d="M80.08 52.5803C89.74 42.8803 105.6 42.9603 108.93 46.2503C112.26 49.5403 112.46 65.3603 102.8 75.0503C93.14 84.7403 77.64 85.0003 73.94 81.3803C70.24 77.7603 70.42 62.2803 80.08 52.5803Z" fill="#1A232C" style="fill:#1A232C;fill:color(display-p3 0.1018 0.1377 0.1708);fill-opacity:1;"/>
</svg>

<?xml version="1.0" encoding="utf-8"?>
<!-- Generator: Adobe Illustrator 24.1.2, SVG Export Plug-In . SVG Version: 6.00 Build 0)  -->
<svg version="1.1" id="Layer_1" xmlns="http://www.w3.org/2000/svg" xmlns:xlink="http://www.w3.org/1999/xlink" x="0px" y="0px"
	 viewBox="0 0 128 128" style="enable-background:new 0 0 128 128;" xml:space="preserve">
<g id="facial_expressions">
	<g id="alien">
		<path style="fill:#ADBCC3;" d="M64,4.5C36.2,4.5,8,28.1,8,55.8s44.3,67.7,56.2,67.7c13.2,0,55.8-39.9,55.8-67.7S91.8,4.5,64,4.5z"
			/>
	</g>
	<g id="alien-face">
		<path id="mouth" style="fill:#422B0D;" d="M64,102.35c-9.37,0-16.06-5.52-18.07-8.58c-0.76-0.98-0.92-2.31-0.41-3.44
			c0.39-0.74,1.17-1.18,2-1.15c0.3,0,0.6,0.05,0.88,0.15C53.1,90.8,57.23,93,64,93s10.92-2.16,15.63-3.63
			c0.28-0.1,0.58-0.15,0.88-0.15c0.83-0.03,1.61,0.41,2,1.15c0.51,1.13,0.35,2.46-0.41,3.44C80.06,96.83,73.37,102.35,64,102.35z"/>
		<g id="eyes">
			<path style="fill:#422B0D;" d="M54.05,81.56c-3,3.88-17.71,3.89-28.85-6.36c-10.09-9.28-9.46-25.64-6.13-28.94
				s19.19-3.38,28.85,6.36S57.72,77.92,54.05,81.56z"/>
			<path style="fill:#422B0D;" d="M80.08,52.58c9.66-9.7,25.52-9.62,28.85-6.33s3.53,19.11-6.13,28.8S77.64,85,73.94,81.38
				S70.42,62.28,80.08,52.58z"/>
		</g>
	</g>
	<path style="fill:#ADBCC3;" d="M64,4.5c14.52,0,29.13,6.42,39.8,16.5C93,9.46,77.17,2,61.47,2c-27.8,0-56,23.6-56,51.3
		c0,15.6,14.06,35.11,28.47,49.18C20.46,88.64,8,70.49,8,55.8C8,28.1,36.2,4.5,64,4.5z"/>
</g>
</svg>
